Numix-GalliumOS/64/mimetypes/application-x-bzip.svg

<svg xmlns="http://www.w3.org/2000/svg" xmlns:xlink="http://www.w3.org/1999/xlink" width="64px" height="64px" viewBox="0 0 64 64" version="1.1">
<g id="surface1">
<path style=" stroke:none;fill-rule:nonzero;fill:rgb(75.686275%,58.431373%,32.54902%);fill-opacity:1;" d="M 10.671875 0 C 9.296875 0 8 1.355469 8 2.789062 L 8 61.210938 C 8 62.566406 9.375 64 10.671875 64 L 53.328125 64 C 54.625 64 56 62.566406 56 61.210938 L 56 18 L 38 0 Z M 10.671875 0 "/>
<path style=" stroke:none;fill-rule:nonzero;fill:rgb(0%,0%,0%);fill-opacity:0.196078;" d="M 8 48 L 8 61.335938 C 8 62.632812 9.375 64 10.664062 64 L 53.335938 64 C 54.625 64 56 62.632812 56 61.335938 L 56 48 Z M 8 48 "/>
<path style=" stroke:none;fill-rule:nonzero;fill:rgb(100%,100%,100%);fill-opacity:1;" d="M 22.933594 58.851562 C 22.933594 59.476562 22.832031 60.007812 22.621094 60.4375 C 22.410156 60.851562 22.121094 61.1875 21.753906 61.445312 C 21.394531 61.6875 20.964844 61.867188 20.464844 61.984375 C 19.980469 62.085938 19.449219 62.132812 18.878906 62.132812 C 18.425781 62.132812 17.949219 62.101562 17.464844 62.046875 C 16.972656 62.007812 16.488281 61.929688 16.011719 61.828125 L 16.011719 51.71875 C 16.402344 51.648438 16.832031 51.59375 17.292969 51.546875 C 17.761719 51.492188 18.222656 51.46875 18.683594 51.46875 C 19.457031 51.46875 20.089844 51.546875 20.582031 51.71875 C 21.074219 51.875 21.457031 52.085938 21.730469 52.359375 C 22.011719 52.617188 22.199219 52.90625 22.300781 53.234375 C 22.402344 53.554688 22.449219 53.882812 22.449219 54.210938 C 22.449219 54.703125 22.332031 55.140625 22.082031 55.523438 C 21.847656 55.898438 21.535156 56.203125 21.136719 56.429688 C 21.832031 56.6875 22.308594 57.039062 22.550781 57.46875 C 22.808594 57.90625 22.933594 58.367188 22.933594 58.851562 M 18.066406 57.4375 L 18.066406 60.265625 C 18.207031 60.289062 18.363281 60.304688 18.527344 60.3125 C 18.707031 60.328125 18.878906 60.335938 19.050781 60.335938 C 19.285156 60.335938 19.511719 60.3125 19.730469 60.28125 C 19.957031 60.234375 20.152344 60.164062 20.316406 60.0625 C 20.496094 59.953125 20.636719 59.796875 20.746094 59.609375 C 20.863281 59.40625 20.917969 59.15625 20.917969 58.851562 C 20.917969 58.34375 20.753906 57.992188 20.433594 57.773438 C 20.121094 57.554688 19.699219 57.4375 19.167969 57.4375 L 18.066406 57.4375 M 18.863281 55.726562 C 19.386719 55.726562 19.785156 55.609375 20.050781 55.382812 C 20.316406 55.148438 20.449219 54.828125 20.449219 54.429688 C 20.449219 54.179688 20.410156 53.984375 20.332031 53.835938 C 20.253906 53.679688 20.152344 53.5625 20.019531 53.484375 C 19.878906 53.398438 19.730469 53.335938 19.550781 53.320312 C 19.371094 53.28125 19.183594 53.265625 18.996094 53.265625 C 18.839844 53.265625 18.683594 53.273438 18.511719 53.28125 C 18.347656 53.296875 18.199219 53.3125 18.066406 53.335938 L 18.066406 55.726562 L 18.863281 55.726562 "/>
<path style=" stroke:none;fill-rule:nonzero;fill:rgb(0%,0%,0%);fill-opacity:0.196078;" d="M 42 18 L 56 32 L 56 18 Z M 42 18 "/>
<path style=" stroke:none;fill-rule:nonzero;fill:rgb(100%,100%,100%);fill-opacity:1;" d="M 30.878906 53.03125 C 30.402344 53.773438 29.957031 54.46875 29.558594 55.117188 C 29.160156 55.765625 28.785156 56.390625 28.441406 56.984375 C 28.097656 57.570312 27.769531 58.132812 27.457031 58.6875 C 27.160156 59.21875 26.871094 59.757812 26.589844 60.28125 L 31.027344 60.28125 L 31.027344 62 L 24.222656 62 L 24.222656 60.804688 C 24.464844 60.320312 24.722656 59.820312 25.003906 59.289062 C 25.285156 58.75 25.597656 58.179688 25.941406 57.570312 C 26.285156 56.96875 26.652344 56.3125 27.058594 55.601562 C 27.464844 54.898438 27.917969 54.132812 28.410156 53.296875 L 24.433594 53.296875 L 24.433594 51.585938 L 30.878906 51.585938 L 30.878906 53.03125 "/>
<path style=" stroke:none;fill-rule:nonzero;fill:rgb(100%,100%,100%);fill-opacity:0.392157;" d="M 38 0 L 55.984375 18 L 40.757812 18 C 39.410156 18 38 16.574219 38 15.226562 Z M 38 0 "/>
<path style=" stroke:none;fill-rule:nonzero;fill:rgb(100%,100%,100%);fill-opacity:1;" d="M 32.699219 62 L 32.699219 60.28125 L 34.949219 60.28125 L 34.949219 53.296875 L 32.699219 53.296875 L 32.699219 51.585938 L 39.253906 51.585938 L 39.253906 53.296875 L 37.019531 53.296875 L 37.019531 60.28125 L 39.253906 60.28125 L 39.253906 62 L 32.699219 62 "/>
<path style=" stroke:none;fill-rule:evenodd;fill:rgb(97.647059%,97.647059%,97.647059%);fill-opacity:1;" d="M 18 0 L 24 0 L 24 6 L 18 6 Z M 18 0 "/>
<path style=" stroke:none;fill-rule:nonzero;fill:rgb(100%,100%,100%);fill-opacity:1;" d="M 43.871094 51.46875 C 45.183594 51.46875 46.207031 51.742188 46.925781 52.289062 C 47.652344 52.828125 48.011719 53.71875 48.011719 54.945312 C 48.011719 56.195312 47.644531 57.09375 46.910156 57.65625 C 46.191406 58.210938 45.160156 58.484375 43.824219 58.484375 L 43.089844 58.484375 L 43.089844 62 L 41.035156 62 L 41.035156 51.71875 C 41.238281 51.671875 41.457031 51.632812 41.707031 51.601562 C 41.964844 51.570312 42.214844 51.546875 42.472656 51.53125 C 42.730469 51.507812 42.980469 51.492188 43.222656 51.484375 C 43.464844 51.46875 43.683594 51.46875 43.871094 51.46875 M 44.105469 53.265625 C 43.988281 53.265625 43.816406 53.273438 43.589844 53.28125 C 43.378906 53.28125 43.214844 53.296875 43.089844 53.320312 L 43.089844 56.679688 L 43.925781 56.679688 C 44.582031 56.679688 45.074219 56.554688 45.410156 56.296875 C 45.746094 56.023438 45.910156 55.570312 45.910156 54.929688 C 45.910156 54.328125 45.746094 53.898438 45.410156 53.65625 C 45.089844 53.398438 44.652344 53.265625 44.105469 53.265625 "/>
<path style=" stroke:none;fill-rule:evenodd;fill:rgb(97.647059%,97.647059%,97.647059%);fill-opacity:1;" d="M 24 6 L 30 6 L 30 12 L 24 12 Z M 24 6 "/>
<path style=" stroke:none;fill-rule:evenodd;fill:rgb(97.647059%,97.647059%,97.647059%);fill-opacity:1;" d="M 18 12 L 24 12 L 24 18 L 18 18 Z M 18 12 "/>
<path style=" stroke:none;fill-rule:evenodd;fill:rgb(97.647059%,97.647059%,97.647059%);fill-opacity:1;" d="M 24 18 L 30 18 L 30 24 L 24 24 Z M 24 18 "/>
<path style=" stroke:none;fill-rule:evenodd;fill:rgb(97.647059%,97.647059%,97.647059%);fill-opacity:1;" d="M 18 24 L 24 24 L 24 30 L 18 30 Z M 18 24 "/>
<path style=" stroke:none;fill-rule:evenodd;fill:rgb(97.647059%,97.647059%,97.647059%);fill-opacity:1;" d="M 18 32 L 30 32 L 30 44 L 18 44 Z M 18 32 "/>
</g>
</svg>

<svg xmlns="http://www.w3.org/2000/svg" viewBox="0 0 64 64">
 <g>
  <path d="m 10.672 0 c -1.375 0 -2.672 1.355 -2.672 2.789 l 0 58.42 c 0 1.355 1.375 2.789 2.672 2.789 l 42.656 0 c 1.297 0 2.672 -1.434 2.672 -2.789 l 0 -43.21 l -18 -18 m -27.328 0" style="fill:#c19553;fill-opacity:1;stroke:none;fill-rule:nonzero"/>
  <path d="m 8 48 l 0 13.336 c 0 1.297 1.375 2.664 2.664 2.664 l 42.672 0 c 1.289 0 2.664 -1.367 2.664 -2.664 l 0 -13.336 m -48 0" style="fill:#000;fill-opacity:0.196;stroke:none;fill-rule:nonzero"/>
  <path d="m 22.934 58.852 c 0 0.625 -0.102 1.156 -0.313 1.586 c -0.211 0.414 -0.5 0.75 -0.867 1.01 c -0.359 0.242 -0.789 0.422 -1.289 0.539 c -0.484 0.102 -1.016 0.148 -1.586 0.148 c -0.453 0 -0.93 -0.031 -1.414 -0.086 c -0.492 -0.039 -0.977 -0.117 -1.453 -0.219 l 0 -10.11 c 0.391 -0.07 0.82 -0.125 1.281 -0.172 c 0.469 -0.055 0.93 -0.078 1.391 -0.078 c 0.773 0 1.406 0.078 1.898 0.25 c 0.492 0.156 0.875 0.367 1.148 0.641 c 0.281 0.258 0.469 0.547 0.57 0.875 c 0.102 0.32 0.148 0.648 0.148 0.977 c 0 0.492 -0.117 0.93 -0.367 1.313 c -0.234 0.375 -0.547 0.68 -0.945 0.906 c 0.695 0.258 1.172 0.609 1.414 1.039 c 0.258 0.438 0.383 0.898 0.383 1.383 m -4.867 -1.414 l 0 2.828 c 0.141 0.023 0.297 0.039 0.461 0.047 c 0.18 0.016 0.352 0.023 0.523 0.023 c 0.234 0 0.461 -0.023 0.68 -0.055 c 0.227 -0.047 0.422 -0.117 0.586 -0.219 c 0.18 -0.109 0.32 -0.266 0.43 -0.453 c 0.117 -0.203 0.172 -0.453 0.172 -0.758 c 0 -0.508 -0.164 -0.859 -0.484 -1.078 c -0.313 -0.219 -0.734 -0.336 -1.266 -0.336 l -1.102 0 m 0.797 -1.711 c 0.523 0 0.922 -0.117 1.188 -0.344 c 0.266 -0.234 0.398 -0.555 0.398 -0.953 c 0 -0.25 -0.039 -0.445 -0.117 -0.594 c -0.078 -0.156 -0.18 -0.273 -0.313 -0.352 c -0.141 -0.086 -0.289 -0.148 -0.469 -0.164 c -0.18 -0.039 -0.367 -0.055 -0.555 -0.055 c -0.156 0 -0.313 0.008 -0.484 0.016 c -0.164 0.016 -0.313 0.031 -0.445 0.055 l 0 2.391 l 0.797 0" style="fill:#fff;fill-opacity:1;stroke:none;fill-rule:nonzero"/>
  <path d="m 42 18 l 14 14 l 0 -14 m -14 0" style="fill:#000;fill-opacity:0.196;stroke:none;fill-rule:nonzero"/>
  <path d="m 30.879 53.03 c -0.477 0.742 -0.922 1.438 -1.32 2.086 c -0.398 0.648 -0.773 1.273 -1.117 1.867 c -0.344 0.586 -0.672 1.148 -0.984 1.703 c -0.297 0.531 -0.586 1.07 -0.867 1.594 l 4.438 0 l 0 1.719 l -6.805 0 l 0 -1.195 c 0.242 -0.484 0.5 -0.984 0.781 -1.516 c 0.281 -0.539 0.594 -1.109 0.938 -1.719 c 0.344 -0.602 0.711 -1.258 1.117 -1.969 c 0.406 -0.703 0.859 -1.469 1.352 -2.305 l -3.977 0 l 0 -1.711 l 6.445 0 l 0 1.445" style="fill:#fff;fill-opacity:1;stroke:none;fill-rule:nonzero"/>
  <path d="m 38 0 l 17.984 18 l -15.227 0 c -1.348 0 -2.758 -1.426 -2.758 -2.773 m 0 -15.227" style="fill:#fff;fill-opacity:0.392;stroke:none;fill-rule:nonzero"/>
  <path d="m 32.699 62 l 0 -1.719 l 2.25 0 l 0 -6.984 l -2.25 0 l 0 -1.711 l 6.555 0 l 0 1.711 l -2.234 0 l 0 6.984 l 2.234 0 l 0 1.719 l -6.555 0" style="fill:#fff;fill-opacity:1;stroke:none;fill-rule:nonzero"/>
  <path d="m 18 0 l 6 0 l 0 6 l -6 0 m 0 -6" style="fill:#f9f9f9;fill-opacity:1;stroke:none;fill-rule:evenodd"/>
  <path d="m 43.871 51.47 c 1.313 0 2.336 0.273 3.055 0.82 c 0.727 0.539 1.086 1.43 1.086 2.656 c 0 1.25 -0.367 2.148 -1.102 2.711 c -0.719 0.555 -1.75 0.828 -3.086 0.828 l -0.734 0 l 0 3.516 l -2.055 0 l 0 -10.281 c 0.203 -0.047 0.422 -0.086 0.672 -0.117 c 0.258 -0.031 0.508 -0.055 0.766 -0.07 c 0.258 -0.023 0.508 -0.039 0.75 -0.047 c 0.242 -0.016 0.461 -0.016 0.648 -0.016 m 0.234 1.797 c -0.117 0 -0.289 0.008 -0.516 0.016 c -0.211 0 -0.375 0.016 -0.5 0.039 l 0 3.359 l 0.836 0 c 0.656 0 1.148 -0.125 1.484 -0.383 c 0.336 -0.273 0.5 -0.727 0.5 -1.367 c 0 -0.602 -0.164 -1.031 -0.5 -1.273 c -0.32 -0.258 -0.758 -0.391 -1.305 -0.391" style="fill:#fff;fill-opacity:1;stroke:none;fill-rule:nonzero"/>
  <path d="m 24 6 l 6 0 l 0 6 l -6 0 m 0 -6" style="fill:#f9f9f9;fill-opacity:1;stroke:none;fill-rule:evenodd"/>
  <path d="m 18 12 l 6 0 l 0 6 l -6 0 m 0 -6" style="fill:#f9f9f9;fill-opacity:1;stroke:none;fill-rule:evenodd"/>
  <path d="m 24 18 l 6 0 l 0 6 l -6 0 m 0 -6" style="fill:#f9f9f9;fill-opacity:1;stroke:none;fill-rule:evenodd"/>
  <path d="m 18 24 l 6 0 l 0 6 l -6 0 m 0 -6" style="fill:#f9f9f9;fill-opacity:1;stroke:none;fill-rule:evenodd"/>
  <path d="m 18 32 l 12 0 l 0 12 l -12 0 m 0 -12" style="fill:#f9f9f9;fill-opacity:1;stroke:none;fill-rule:evenodd"/>
 </g>
</svg>
